!!!COM: Mozart, Wolfgang Amadeus
!!!OPR: Quartet in C Major
!!!OTL:
!!!OMV: 3
!!!SCT: K 465
!!!SCA: Chronologisch-thematisches Verzeichnis sämtlicher Tonwerke Wolfgang Amade Mozarts (L. von Köchel; 1862, 2/1905, 3/1937, 1947)
!!!YOR: Breitkopf & Härtel Edition
!!!EED: Frances Bennion
!!!ENC: Frances Bennion
!!!CDT: 1756/1/27/-1791/12/5/
!!!OCY: Österreich
!!!YEC: Copyright (c) 1994, 2000 Center for Computer Assisted Research in the Humanities
!!!YEM: Rights to all derivative editions reserved.
!!!YEM: Refer to licensing agreement for further details.
!!!YEN: United States of America
**kern	**kern	**kern	**kern
*k[]	*k[]	*k[]	*k[]
*C:	*C:	*C:	*C:
*clefG	*clefG	*clefF	*clefC
*M3/4	*M3/4	*M3/4	*M3/4
*tb16	*tb16	*tb16	*tb16
=0-	=0-	=0-	=0-
2r	2r	2r	2r
8ee	4r	4r	4r
8ff	.	.	.
=1	=1	=1	=1
8ff#	2.r	2.r	2.r
8gg	.	.	.
8aa	.	.	.
8gg	.	.	.
8ff	.	.	.
8dd	.	.	.
=2	=2	=2	=2
4cc	4e	4c	4A
4cc	4e	4c	4A
4cc	4e	4c	4A
=3	=3	=3	=3
4ff	4d	4c	4D
4ff	4d	4c	4D
4ff	4d	4c	4D
=4	=4	=4	=4
4f	4d	4B	4G
4r	4r	4r	4r
8B	8B	8B	8BB
8G	8G	8G	8GG
=5	=5	=5	=5
8c	8c	8c	8C
8G	8G	8G	8GG
8d	8d	8d	8D
8G	8G	8G	8GG
8e	8e	8e	8E
8G	8G	8G	8GG
=6	=6	=6	=6
4f	4f	4f	4F
4r	4r	2r	2r
8b	4f	.	.
8g	.	.	.
=7	=7	=7	=7
8cc	4e	2.r	2.r
8g	.	.	.
8dd	4d	.	.
8g	.	.	.
8ee	4c	.	.
8g	.	.	.
=8	=8	=8	=8
8gg	2B	2.r	2.r
8ff#	.	.	.
8ff	.	.	.
8dd	.	.	.
8ee	4c	.	.
8cc	.	.	.
=9	=9	=9	=9
4e	8ee	2.r	2.r
.	8dd#	.	.
4gg#	8dd	.	.
.	8b	.	.
4aa	8cc	.	.
.	8a	.	.
=10	=10	=10	=10
4d	4r	8d	2.r
.	.	8c#	.
4ff#	8a	8c	.
.	8cc	8A	.
4gg	4b	8B	.
.	.	8G	.
=11	=11	=11	=11
4a	4r	4A	8A
.	.	.	8G#
4ccc#	8ee	4a	8G
.	8gg	.	8E
4ddd	4ff#	4a	8F#
.	.	.	8D
=12	=12	=12	=12
[2.d	2.c	2.A	2.FF#
=13	=13	=13	=13
8d]	4B	4G	4GG
8e	.	.	.
8f#	2r	2r	2r
8g	.	.	.
8a	.	.	.
8b	.	.	.
=14	=14	=14	=14
8cc	4g	4G	4E
8dd	.	.	.
8ee	2r	2r	2r
8ff#	.	.	.
8gg	.	.	.
8aa	.	.	.
=15	=15	=15	=15
8bb	8gg	4dd	2.r
8ccc	8aa	.	.
8ccc#	8aa#	4dd	.
8ddd	8bb	.	.
8ccc	8aa	4dd	.
8aa	8ff#	.	.
=16	=16	=16	=16
4gg	4gg	4g	2r
4r	4r	4r	.
8g	4d	4G	4BB
8dd	.	.	.
=17	=17	=17	=17
8dd	4e	4G	4C
8cc	.	.	.
8cc	4r	4r	4r
8b	.	.	.
8b	4c	4F#	4D
8a	.	.	.
=18	=18	=18	=18
8a	4B	4G	4E
8g	.	.	.
8g	4r	4r	4r
8dd	.	.	.
8dd	4d	4G	4BB
8cc	.	.	.
=19	=19	=19	=19
8cc	4e	4G	4C
8b	.	.	.
8b	4r	4r	4r
8a	.	.	.
8a	4c	4F#	4D
8g	.	.	.
=20	=20	=20	=20
4g	4B	4G	4GG
4r	4r	4r	4r
8f#	8f#	8f#	8F#
8g	8g	8g	8G
=21	=21	=21	=21
8g#	8g#	8g#	8G#
8a	8a	8a	8A
8b-	8b-	8b-	8B-
8a	8a	8a	8A
8g	8g	8g	8G
8e	8e	8e	8E
=22	=22	=22	=22
4d	4d	4d	4D
4d	4d	4d	4D
4d	4d	4d	4D
=23	=23	=23	=23
4g	4g	4g	4G
4g	4g	4g	4G
4g	4g	4g	4G
=24	=24	=24	=24
4B-	2.B-	2.B-	[2.BB-
4r	.	.	.
8cc#	.	.	.
8dd	.	.	.
=25	=25	=25	=25
8ee-	[2.dd	2d	2.BB-]
8ee	.	.	.
8ff	.	.	.
8ff#	.	.	.
8gg	.	4e	.
8gg#	.	.	.
=26	=26	=26	=26
4aa	4dd]	4f	4AA
4aa	4dd	4f 4A	2r
4aa	4dd	4f 4A	.
=27	=27	=27	=27
4cc#	4g	4e 4A	2r
4cc#	4g	4e 4A	.
4cc#	4g	4e 4A	8F#
.	.	.	8G
=28	=28	=28	=28
[2.cc	2f#	[2.d	8G#
.	.	.	8A
.	.	.	8B-
.	.	.	8A
.	8a	.	8F#
.	8f#	.	8D
=29	=29	=29	=29
4cc]	4g	4d]	4G
4b	2r	2r	4r
4g	.	.	8E
.	.	.	8F
=30	=30	=30	=30
[2.b-	2e	[2.c	8F#
.	.	.	8G
.	.	.	8A
.	.	.	8G
.	8g	.	8E
.	8e	.	8C
=31	=31	=31	=31
4b-]	4f	4c]	4F
4a	2r	2r	2r
8ff	.	.	.
8gg	.	.	.
=32	=32	=32	=32
8gg#	2cc	2f	2.r
8aa	.	.	.
8bb-	.	.	.
8aa	.	.	.
8gg	4b-	4c#	.
8ee	.	.	.
=33	=33	=33	=33
8ee	2a	2d	2.r
8ff	.	.	.
8gg	.	.	.
8ff	.	.	.
8ee	4g	4e	.
8cc#	.	.	.
=34	=34	=34	=34
8cc#	2a	4f	4r
8dd	.	.	.
8ee	.	4d	4F
8dd	.	.	.
8cc	8A	4d	4F#
8a	8c	.	.
=35	=35	=35	=35
2.g	4B	4d	4G
.	4r	4r	4GG
.	8d	8B	4r
.	8e-	8c	.
=36	=36	=36	=36
2.g	8e	8c#	4r
.	8f	8d	.
.	8g	8e	4BB
.	8f	8d	.
.	8e	8c	4C
.	8c	8A	.
=37	=37	=37	=37
4g	4d	4B	4GG
4gg	4r	4r	4G
4gg	8dd	8b	4r
.	8ee-	8cc	.
=38	=38	=38	=38
[2.gg	8ee	8cc#	4r
.	8ff	8dd	.
.	8gg	8ee	4B
.	8ff	8dd	.
.	8ee	8cc	4c
.	8cc	8a	.
=39	=39	=39	=39
8gg]	4dd	4b	4G
8ff#	.	.	.
8gg	4r	2r	2r
8ff	.	.	.
8ee	8cc	.	.
8ff	8dd	.	.
=40	=40	=40	=40
8ff#	8dd#	2r	2.r
8gg	8ee	.	.
8aa	8ff	.	.
8gg	8ee	.	.
8ff	8dd	8f#	.
8dd	8b	8g	.
=41	=41	=41	=41
4cc	4cc	8g#	2r
.	.	8a	.
4cc	4e	8b-	.
.	.	8a	.
4cc	4e	8g	8BB
.	.	8e	8C
=42	=42	=42	=42
4ff	4A	4d	8C#
.	.	.	8D
4ff	4A	4d	8E
.	.	.	8D
4ff	4A	4d	8C
.	.	.	8AA
=43	=43	=43	=43
4f	4B	4d	4GG
4r	4r	4r	4r
8B	8B	8B	8BB
8G	8G	8G	8GG
=44	=44	=44	=44
8c	8c	8c	8C
8G	8G	8G	8GG
8d	8d	8d	8D
8G	8G	8G	8GG
8e	8e	8e	8E
8G	8G	8G	8GG
=45	=45	=45	=45
4f	4f	4f	4F
4r	4r	2r	2r
8b	4f	.	.
8g	.	.	.
=46	=46	=46	=46
8cc	4e	2.r	2.r
8g	.	.	.
8dd	4d	.	.
8g	.	.	.
8ee	4c	.	.
8g	.	.	.
=47	=47	=47	=47
8gg	2B	2.r	2.r
8ff#	.	.	.
8ff	.	.	.
8dd	.	.	.
8ee	4c	.	.
8cc	.	.	.
=48	=48	=48	=48
4c	8cc	2.r	2.r
.	8b	.	.
4ee	8b-	.	.
.	8g	.	.
4ff	8a	.	.
.	8f	.	.
=49	=49	=49	=49
4a	4r	8a	2.r
.	.	8g#	.
4ccc#	8ee	8g	.
.	8gg	8e	.
4ddd	4ff#	8f#	.
.	.	8d	.
=50	=50	=50	=50
4g	4r	4G	8G
.	.	.	8F#
4bb	8dd	4g	8F
.	8ff	.	8D
4ccc	4ee	4g	8E
.	.	.	8C
=51	=51	=51	=51
[2.d	[2.c	[2.A	2.FF
=52	=52	=52	=52
8d]	4c]	4A]	4FF#
8e	.	.	.
8f#	2r	2r	2r
8g	.	.	.
8a	.	.	.
8b	.	.	.
=53	=53	=53	=53
8cc	4e	4c	4GG
8dd	.	.	.
8ee	2r	2r	2r
8ff	.	.	.
8gg	.	.	.
8aa	.	.	.
=54	=54	=54	=54
8gg	8ee	4g	2.r
8ff#	8dd#	.	.
8ff	8dd	4g	.
8ee	8cc#	.	.
8ff	8dd	4g	.
8dd	8b	.	.
=55	=55	=55	=55
4cc	4cc	4c	2r
4r	4r	4r	.
8cc	4g	4c	4E
8gg	.	.	.
=56	=56	=56	=56
8gg	4a	4c	4F
8ff	.	.	.
8ff	4r	4r	4r
8ee	.	.	.
8ee	4f	4B	4G
8dd	.	.	.
=57	=57	=57	=57
8dd	4e	4c	4A
8cc	.	.	.
8cc	4r	4r	4r
8gg	.	.	.
8gg	4g	4c	4E
8ff	.	.	.
=58	=58	=58	=58
8ff	4a	4c	4F
8ee	.	.	.
8ee	4r	4r	4r
8dd	.	.	.
8dd	4f	4B	4G
8cc	.	.	.
=59	=59	=59	=59
2cc	4e	4c	4C
.	4r	4r	4r
4gg	8c	4c	4EE
.	8g	.	.
=60	=60	=60	=60
2aa	8g	4A	4FF
.	8f	.	.
.	8f	4r	4r
.	8e	.	.
4bb	8e	4F	4GG
.	8d	.	.
=61	=61	=61	=61
2ccc	8d	4E	4AA
.	8c	.	.
.	8c	4r	4r
.	8g	.	.
4gg	8g	8B-	4EE
.	8f	8A	.
=62	=62	=62	=62
4aa	8f	8A	4FF
.	8e	8G	.
4aa	8e	8G	4DD
.	8d	8F	.
8bb	8d	8F	4GG
16aa	8c	8E	.
16bb	.	.	.
=63	=63	=63	=63
4ccc	4c	4E	4CC
4r	2r	2r	2r
4g	.	.	.
=64	=64	=64	=64
4cc	8g	8e-	4r
.	8e-	8c	.
4r	8g	8e-	4C
.	8g	8e-	.
4ee-	8g	8e-	4r
.	8g	8e-	.
=65	=65	=65	=65
4gg	8g	8e-	4r
.	8e-	8c	.
4r	8g	8e-	4C
.	8g	8e-	.
4ccc	8g	8e-	4r
.	8g	8e-	.
=66	=66	=66	=66
2eee-	8g	8e-	4r
.	8e-	8c	.
.	8g	8e-	4C
.	8g	8e-	.
8ddd	8g	8e-	4CC
8ccc	8g	8e-	.
=67	=67	=67	=67
4bb	8g	8d	4GG
.	8d	8B	.
4r	8g	8d	4G
.	8g	8d	.
4ddd	8g	8d	4r
.	8g	8d	.
=68	=68	=68	=68
4ff	8b	8d	4r
.	8g	8B	.
4r	8b	8d	4G
.	8b	8d	.
4aa-	8b	8d	4r
.	8b	8d	.
=69	=69	=69	=69
4b	8f	8d	4r
.	8d	8G	.
4r	8f	8d	4GG
.	8f	8d	.
4B	8f	8d	4r
.	8f	8d	.
=70	=70	=70	=70
2a-	8d	8B	4r
.	8B	8G	.
.	8d	8B	4G
.	8d	8B	.
8g	8d	8B	4GG
8f	8d	8B	.
=71	=71	=71	=71
4e-	8c	4c	4C
.	8e-	.	.
4r	8d	2r	4c
.	8e-	.	.
4ee-	8f	.	4r
.	8e-	.	.
=72	=72	=72	=72
2g	8e-	2d-	2.r
.	8d	.	.
.	8e-	.	.
.	8e-	.	.
4a-	8e-	4c	.
.	8e-	.	.
=73	=73	=73	=73
2dd-	8e-	2G	2.r
.	8d	.	.
.	8e-	.	.
.	8e-	.	.
8cc	8e-	8A-	.
8a-	8e-	8c	.
=74	=74	=74	=74
4g	8e-	4d-	2.r
.	8d	.	.
4g	8e-	4d-	.
.	8e-	.	.
4a-	8e-	8c	.
.	8e-	8A-	.
=75	=75	=75	=75
4dd-	8e-	4G	2.r
.	8d	.	.
8ee-	8e-	4G	.
8dd-	8e-	.	.
8cc	8e-	8A-	.
8a-	8e-	8c	.
=76	=76	=76	=76
4g	8e-	8B-	2r
.	8B-	8G	.
4b-	8g	8e-	.
.	8g	8e-	.
4ee-	8g	8e-	4BB-
.	8g	8e-	.
=77	=77	=77	=77
4gg	8g	8e-	4E-
.	8e-	8B-	.
4bb-	8ee-	8g	4r
.	8ee-	8g	.
4eee-	8ee-	8g	4G
.	8ee-	8g	.
=78	=78	=78	=78
4.bb-	8ee-	8g	4B-
.	8gg	8e-	.
.	8b-	8d	4r
8aa	8b-	8e-	.
8aa-	8b-	8f	4d
8ff	8b-	8a-	.
=79	=79	=79	=79
4ee-	4b-	4g	4e-
4r	2r	2r	2r
4bb-	.	.	.
=80	=80	=80	=80
4ee	8b-	8g	4r
.	8g	8e	.
4r	8b-	8g	4d-
.	8b-	8g	.
4gg	8b-	8g	4r
.	8b-	8g	.
=81	=81	=81	=81
4b-	8g	8e	4r
.	8e	8G	.
4r	8g	8B-	4E
.	8g	8B-	.
4e	8g	8B-	4r
.	8g	8B-	.
=82	=82	=82	=82
2dd-	8G	8E	4r
.	8B-	8G	.
.	8G	8E	4C
.	8G	8E	.
8cc	8G	8E	4CC
8b-	8G	8E	.
=83	=83	=83	=83
4a-	8A-	8F	4FF
.	8c	8A-	.
4r	8a-	8c	4F
.	8a-	8c	.
4ccc	8a-	8c	4r
.	8a-	8c	.
=84	=84	=84	=84
4ff#	8cc	8a	4r
.	8a	8c	.
4r	8cc	8a	4e-
.	8cc	8a	.
4aa	8cc	8a	4r
.	8cc	8a	.
=85	=85	=85	=85
4cc	8a	8f#	4r
.	8f#	8A	.
4r	8a	8c	4F#
.	8a	8c	.
4f#	8a	8c	4r
.	8a	8c	.
=86	=86	=86	=86
2ee-	8A	8F#	4r
.	8c	8A	.
.	8A	8F#	4D
.	8A	8F#	.
8dd	8A	8F#	4DD
8cc	8A	8F#	.
=87	=87	=87	=87
4b	8G	4G	4GG
.	8g	.	.
4r	8f#	2r	4G
.	8g	.	.
4gg	8e-	.	4G
.	8c	.	.
=88	=88	=88	=88
8ff#	4B	4d	4G
8gg	.	.	.
8aa-	4r	4B	4G
8gg	.	.	.
8ee-	4g	8c	4G
8cc	.	8e-	.
=89	=89	=89	=89
4b	8f#	4d	4G
.	8g	.	.
4dd	8a-	4B	4GG
.	8g	.	.
4gg	8e-	8c	4GG
.	8c	8E-	.
=90	=90	=90	=90
8aa-	4B	4D	4GG
8gg	.	.	.
8ff#	4d	4B	4G
8gg	.	.	.
8ee-	4g	8c	4G
8cc	.	8e-	.
=91	=91	=91	=91
4b	8a-	4d	4G
.	8g	.	.
4dd	8f#	4B	4GG
.	8g	.	.
4r	8f	8d	4GG
.	8d	8B	.
=92	=92	=92	=92
4r	8e-	8c	4C
.	8c	8G	.
4ee-	8g	8c	4r
.	8g	8c	.
4gg	8g	8c	4E-
.	8g	8c	.
=93	=93	=93	=93
4r	8cc	8e-	4G
.	8g	8c	.
4ccc	8ee-	8g	4r
.	8ee-	8g	.
4eee-	8ee-	8g	4c
.	8ee-	8g	.
=94	=94	=94	=94
4r	8cc	8a	2e-
.	8a	8f#	.
4ff#	8cc	8a	.
.	8cc	8a	.
4fff#	8cc	8a	8d
.	8cc	8a	8c
=95	=95	=95	=95
4r	8dd	8g	4B
.	8b	8d	.
4ggg	8gg	8b	4r
.	8gg	8b	.
4ddd	8gg	8b	4f
.	8gg	8b	.
=96	=96	=96	=96
4r	8ff	8d	4B
.	8dd	8f	.
4fff	8ff	8a-	4r
.	8ff	8a-	.
4bb	8ff	8a-	4d
.	8ff	8a-	.
=97	=97	=97	=97
4r	8dd	8a-	4F
.	8d	8B	.
4ddd	8a-	8d	4r
.	8a-	8d	.
4ff	8a-	8d	4BB
.	8a-	8d	.
=98	=98	=98	=98
4r	8f	8d	2A-
.	8d	8B	.
4b	8f	8d	.
.	8f	8d	.
4bb	8f	8d	8G
.	8f	8d	8F
=99	=99	=99	=99
4r	8g	8d-	2.E
.	8B-	8G	.
4b-	8g	8c	.
.	8g	8c	.
[4bb-	8g	8c	.
.	8g	8c	.
=100	=100	=100	=100
4bb-]	2f	[2.c	2F
4aa-	.	.	.
[4gg	4e	.	4G
=101	=101	=101	=101
4gg]	[2.cc	2c]	2A
4ff	.	.	.
[4ff#	.	4d	4A-
=102	=102	=102	=102
4ff#]	4cc]	4e-	4G
4gg	4r	4r	4r
4b	4f	4d	4GG
=103	=103	=103	=103
4cc	4e-	4c	4CC
2r	2r	2r	4C
.	.	.	4r
==	==	==	==
*-	*-	*-	*-
!!!RWG1: This file contains only pitch and duration data.
!!!RWG2: Transposing instruments are not transposed.
!!!RWG3: Spines may have incompatible meters.
!!!RWG4: Durations of rests and tied notes may be interpreted.
!!!RWG: Key is interpreted using the Humdrum key tool.
!!!AFT: stage1
!!!END: 1997/04/15
!!format changes:
!!content changes:
!!public access: complete
!!!KEY: 1786209818
!!!EMD: Converted from MuseData to Humdrum Dec 16, 2000, by Andreas Kornstaedt using muse2kern.
